X: 2128
T: Atlantic Roar, The
R: hornpipe
M: 4/4
K: Gmajor
(3DEF|G2 GF G2 Bd|(3gag fd e^cAG|F2 FE FAD>F|GB (3AGF GDB,D|
G2 GF G2 Bd (3gag fd e^cAG|F2 FE FAD>F|AB (3AGF GAB=c||
ded^c dBB=c|(3d=cB gb afd^c|(3BdB GB (3AcA FA|A^GAB AFDF|
d^cde dBB=c|(3d^=cB gb afd^c|(3BdB GB (3AcA FA|G2 GF G2||

